projects/plugins/protect/.w.org-assets/icon-128x128.svg

<svg fill="none" height="128" viewBox="0 0 128 128" width="128" xmlns="http://www.w3.org/2000/svg" xmlns:xlink="http://www.w3.org/1999/xlink"><clipPath id="a"><path d="m0 0h128v128h-128z"/></clipPath><g clip-path="url(#a)"><rect fill="#2c3338" height="103.619" rx="12.1905" width="103.619" x="12.1904" y="12.1904"/><path clip-rule="evenodd" d="m65.257 43.6826 18.2725 8.3057v12.3815c0 10.5546-6.7788 20.548-16.3377 23.7005-1.2561.4143-2.6134.4143-3.8695 0-9.5589-3.1525-16.3377-13.1459-16.3377-23.7005v-12.3815zm-14.2118 10.9203v9.7669c0 8.9682 5.8069 17.2909 13.5489 19.8443.4301.1419.8958.1419 1.3259 0 7.742-2.5534 13.5489-10.8761 13.5489-19.8443v-9.7669l-14.2119-6.4599z" fill="#fff" fill-rule="evenodd"/><path d="m104.656 46.7302c12.905 0 23.365-10.4609 23.365-23.3651s-10.46-23.3651-23.365-23.3651c-12.9038 0-23.3647 10.4609-23.3647 23.3651s10.4609 23.3651 23.3647 23.3651z" fill="#069e08"/><g fill="#fff"><path d="m105.815 19.4412v22.6516l11.683-22.6516z"/><path d="m103.453 27.2443v-22.60709l-11.6383 22.60709z"/></g></g></svg>

<svg width="128" height="128" viewBox="0 0 128 128" fill="none" xmlns="http://www.w3.org/2000/svg">
<g clip-path="url(#clip0_2891_12336)">
<rect x="12.1904" y="12.1904" width="103.619" height="103.619" rx="12.1905" fill="#2C3338"/>
<g style="mix-blend-mode:screen">
<path fill-rule="evenodd" clip-rule="evenodd" d="M65.257 43.6826L83.5295 51.9883V64.3698C83.5295 74.9244 76.7507 84.9178 67.1918 88.0703C65.9357 88.4846 64.5784 88.4846 63.3223 88.0703C53.7634 84.9178 46.9846 74.9244 46.9846 64.3698V51.9883L65.257 43.6826ZM51.0452 54.6029V64.3698C51.0452 73.338 56.8521 81.6607 64.5941 84.2141C65.0242 84.356 65.4899 84.356 65.92 84.2141C73.662 81.6607 79.4689 73.338 79.4689 64.3698V54.6029L65.257 48.143L51.0452 54.6029Z" fill="white"/>
</g>
<path d="M104.656 46.7302C117.561 46.7302 128.021 36.2693 128.021 23.3651C128.021 10.4609 117.561 0 104.656 0C91.7522 0 81.2913 10.4609 81.2913 23.3651C81.2913 36.2693 91.7522 46.7302 104.656 46.7302Z" fill="#069E08"/>
<path d="M105.815 19.4412V42.0928L117.498 19.4412H105.815Z" fill="white"/>
<path d="M103.453 27.2443V4.63721L91.8147 27.2443H103.453Z" fill="white"/>
</g>
<defs>
<clipPath id="clip0_2891_12336">
<rect width="128" height="128" fill="white"/>
</clipPath>
</defs>
</svg>
